X: 20413
Q: "With spirit."
M: 6/8
L: 1/8
K: G
c2z z2z | B2z z2z | e2z z2z | Hd2z de=f |
ede {g}=fed | d^fg a2c | B2B BcA | Bcd efg |\
fed cBA | (g/b/a/g/f/e/) (d/e/d/c/B/A/) | Bcd efg | gdB gdB |\
(B3 A2)G | G2z "^Fin."z2 H|]
e2f/^d/ e2B | AGF GAB | c2c c2c | BcB BAd |\
eBd cBA | dAc BAG | B^cd e2d | {f}ed^c "^D.C."d3 |]


